public/images/home/location.svg

<svg width="17" height="21" viewBox="0 0 17 21" fill="none" xmlns="http://www.w3.org/2000/svg">
<path d="M8.54031 0C4.11185 0 0.508789 3.58805 0.508789 7.99805C0.508789 9.74326 1.06235 11.4015 2.11098 12.7928L8.04524 20.7519C8.06007 20.7712 8.08272 20.7786 8.0992 20.7958C8.39575 21.112 8.82368 21.0324 9.03497 20.7519C10.7438 18.4813 13.8761 14.2406 15.0804 12.641C15.0804 12.641 15.0809 12.6398 15.0813 12.639L15.0887 12.6291C16.0591 11.2715 16.5718 9.67025 16.5718 7.99805C16.5718 3.58805 12.9688 0 8.54031 0ZM8.54031 12.3129C6.15598 12.3129 4.20741 10.3724 4.20741 7.99805C4.20741 5.62365 6.15598 3.6832 8.54031 3.6832C10.9246 3.6832 12.8732 5.62365 12.8732 7.99805C12.8732 10.3724 10.9246 12.3129 8.54031 12.3129Z" fill="#FF6B00"/>
</svg>

<svg xmlns="http://www.w3.org/2000/svg" width="17" height="21" fill="none" xmlns:v="https://vecta.io/nano"><path d="M8.54 0C4.112 0 .509 3.588.509 7.998c0 1.745.554 3.403 1.602 4.795l5.934 7.959c.015.019.037.027.054.044.297.316.724.237.936-.044l6.045-8.111.008-.012c.97-1.358 1.483-2.959 1.483-4.631C16.572 3.588 12.969 0 8.54 0zm0 12.313c-2.384 0-4.333-1.94-4.333-4.315S6.156 3.683 8.54 3.683s4.333 1.94 4.333 4.315-1.949 4.315-4.333 4.315z" fill="#ff6b00"/></svg>
